book-education.svg

<svg fill="currentColor" viewBox="0 0 24 24"><path d="M8.82 17 13 19.28V22H6c-1.11 0-2-.89-2-2V4a2 2 0 0 1 2-2h1v7l2.5-1.5L12 9V2h6a2 2 0 0 1 2 2v8.54l-1.5-.82zM24 17l-5.5-3-5.5 3 5.5 3zm-9 2.09v2L18.5 23l3.5-1.91v-2L18.5 21z"/></svg>

<svg  viewBox="0 0 24 24" fill="currentColor"><path  d="M8.82 17L13 19.28V22H6C4.89 22 4 21.11 4 20V4C4 2.9 4.89 2 6 2H7V9L9.5 7.5L12 9V2H18C19.1 2 20 2.89 20 4V12.54L18.5 11.72L8.82 17M24 17L18.5 14L13 17L18.5 20L24 17M15 19.09V21.09L18.5 23L22 21.09V19.09L18.5 21L15 19.09Z"/></svg>
